svg/color/btcst.svg

<?xml version="1.0" encoding="UTF-8" ?>
<!DOCTYPE svg PUBLIC "-//W3C//DTD SVG 1.1//EN" "http://www.w3.org/Graphics/SVG/1.1/DTD/svg11.dtd">
<svg width="250pt" height="250pt" viewBox="0 0 250 250" version="1.1" xmlns="http://www.w3.org/2000/svg">
<g id="#000000ff">
<path fill="#000000" opacity="1.00" d=" M 0.00 0.00 L 250.00 0.00 L 250.00 250.00 L 0.00 250.00 L 0.00 0.00 M 80.00 52.16 C 70.10 58.41 64.15 70.32 65.19 82.00 C 65.79 98.00 80.02 111.96 96.00 112.44 C 115.35 112.52 134.70 112.43 154.05 112.48 C 166.30 112.38 177.84 121.27 181.08 133.04 C 183.10 139.22 182.40 145.89 180.19 151.91 C 174.44 143.85 164.86 138.61 154.93 138.42 C 135.27 138.32 115.60 138.51 95.94 138.33 C 82.04 137.77 69.83 125.62 69.26 111.72 C 69.79 108.91 66.73 109.81 65.10 109.62 C 64.48 126.51 79.12 142.01 95.98 142.48 C 115.30 142.55 134.63 142.47 153.96 142.51 C 163.33 142.47 172.59 147.53 177.57 155.47 C 178.03 157.15 176.38 158.30 175.53 159.50 C 170.27 165.78 162.24 169.75 154.00 169.64 C 130.00 169.69 106.00 169.63 82.00 169.66 C 76.33 169.68 70.84 172.73 67.77 177.50 C 63.31 184.21 64.52 194.04 70.54 199.43 C 73.64 202.23 77.77 203.93 81.98 203.80 C 106.00 203.81 130.03 203.81 154.05 203.80 C 164.60 203.99 174.86 198.24 180.70 189.55 C 184.40 184.20 186.24 177.72 186.45 171.25 C 185.45 171.23 183.44 171.19 182.44 171.17 C 182.00 178.03 179.78 184.94 175.07 190.07 C 169.86 196.06 162.05 199.78 154.07 199.69 C 130.05 199.70 106.03 199.70 82.01 199.68 C 78.93 199.75 75.88 198.61 73.59 196.57 C 68.52 192.36 67.67 184.00 71.86 178.90 C 74.42 175.47 78.71 173.64 82.94 173.75 C 106.65 173.77 130.36 173.76 154.07 173.76 C 162.87 173.87 171.54 169.91 177.51 163.49 C 184.79 155.76 188.04 144.33 185.56 133.96 C 182.68 119.81 169.43 108.58 154.95 108.37 C 135.28 108.23 115.61 108.43 95.94 108.27 C 86.70 107.90 78.43 102.37 73.29 94.88 C 78.21 86.73 87.38 81.18 96.97 81.24 C 120.99 81.22 145.02 81.25 169.04 81.23 C 177.88 81.40 186.00 73.93 186.35 65.05 C 187.16 55.49 178.64 46.65 169.08 46.89 C 145.69 46.78 122.31 46.88 98.92 46.84 C 92.29 46.89 85.56 48.41 80.00 52.16 Z" />
<path fill="#000000" opacity="1.00" d=" M 72.33 66.59 C 76.93 57.52 86.71 51.08 96.98 51.20 C 121.01 51.19 145.03 51.20 169.06 51.19 C 174.72 50.81 180.09 54.90 181.66 60.27 C 183.78 66.18 180.42 73.28 174.74 75.79 C 171.38 77.39 167.56 77.07 163.96 76.88 C 147.61 76.92 131.27 76.83 114.92 76.86 C 105.32 77.57 95.27 75.55 86.04 79.12 C 80.06 81.30 75.19 85.59 71.03 90.30 C 68.35 82.65 68.48 73.83 72.33 66.59 Z" />
</g>
<g id="#ffffffff">
<path fill="#ffffff" opacity="1.00" d=" M 80.00 52.16 C 85.56 48.41 92.29 46.89 98.92 46.84 C 122.31 46.88 145.69 46.78 169.08 46.89 C 178.64 46.65 187.16 55.49 186.35 65.05 C 186.00 73.93 177.88 81.40 169.04 81.23 C 145.02 81.25 120.99 81.22 96.97 81.24 C 87.38 81.18 78.21 86.73 73.29 94.88 C 78.43 102.37 86.70 107.90 95.94 108.27 C 115.61 108.43 135.28 108.23 154.95 108.37 C 169.43 108.58 182.68 119.81 185.56 133.96 C 188.04 144.33 184.79 155.76 177.51 163.49 C 171.54 169.91 162.87 173.87 154.07 173.76 C 130.36 173.76 106.65 173.77 82.94 173.75 C 78.71 173.64 74.42 175.47 71.86 178.90 C 67.67 184.00 68.52 192.36 73.59 196.57 C 75.88 198.61 78.93 199.75 82.01 199.68 C 106.03 199.70 130.05 199.70 154.07 199.69 C 162.05 199.78 169.86 196.06 175.07 190.07 C 179.78 184.94 182.00 178.03 182.44 171.17 C 183.44 171.19 185.45 171.23 186.45 171.25 C 186.24 177.72 184.40 184.20 180.70 189.55 C 174.86 198.24 164.60 203.99 154.05 203.80 C 130.03 203.81 106.00 203.81 81.98 203.80 C 77.77 203.93 73.64 202.23 70.54 199.43 C 64.52 194.04 63.31 184.21 67.77 177.50 C 70.84 172.73 76.33 169.68 82.00 169.66 C 106.00 169.63 130.00 169.69 154.00 169.64 C 162.24 169.75 170.27 165.78 175.53 159.50 C 176.38 158.30 178.03 157.15 177.57 155.47 C 172.59 147.53 163.33 142.47 153.96 142.51 C 134.63 142.47 115.30 142.55 95.98 142.48 C 79.12 142.01 64.48 126.51 65.10 109.62 C 66.73 109.81 69.79 108.91 69.26 111.72 C 69.83 125.62 82.04 137.77 95.94 138.33 C 115.60 138.51 135.27 138.32 154.93 138.42 C 164.86 138.61 174.44 143.85 180.19 151.91 C 182.40 145.89 183.10 139.22 181.08 133.04 C 177.84 121.27 166.30 112.38 154.05 112.48 C 134.70 112.43 115.35 112.52 96.00 112.44 C 80.02 111.96 65.79 98.00 65.19 82.00 C 64.15 70.32 70.10 58.41 80.00 52.16 M 72.33 66.59 C 68.48 73.83 68.35 82.65 71.03 90.30 C 75.19 85.59 80.06 81.30 86.04 79.12 C 95.27 75.55 105.32 77.57 114.92 76.86 C 131.27 76.83 147.61 76.92 163.96 76.88 C 167.56 77.07 171.38 77.39 174.74 75.79 C 180.42 73.28 183.78 66.18 181.66 60.27 C 180.09 54.90 174.72 50.81 169.06 51.19 C 145.03 51.20 121.01 51.19 96.98 51.20 C 86.71 51.08 76.93 57.52 72.33 66.59 Z" />
</g>
</svg>

<?xml version="1.0" encoding="utf-8"?>
<!-- Generator: Adobe Illustrator 26.0.3, SVG Export Plug-In . SVG Version: 6.00 Build 0)  -->
<svg version="1.1" id="Layer_1" xmlns="http://www.w3.org/2000/svg" xmlns:xlink="http://www.w3.org/1999/xlink" x="0px" y="0px"
	 viewBox="0 0 250 250" style="enable-background:new 0 0 250 250;" xml:space="preserve">
<style type="text/css">
	.st0{fill:#FFFFFF;}
</style>
<circle cx="125" cy="125.5" r="125"/>
<g id="_x23_000000ff">
	<path d="M72.3,66.6c4.6-9.1,14.4-15.5,24.7-15.4c24,0,48,0,72.1,0c5.7-0.4,11,3.7,12.6,9.1c2.1,5.9-1.2,13-6.9,15.5
		c-3.4,1.6-7.2,1.3-10.8,1.1c-16.4,0-32.7,0-49,0c-9.6,0.7-19.7-1.3-28.9,2.3c-6,2.2-10.8,6.5-15,11.2
		C68.3,82.7,68.5,73.8,72.3,66.6z"/>
</g>
<g id="_x23_ffffffff">
	<path class="st0" d="M80,52.2c5.6-3.8,12.3-5.3,18.9-5.3c23.4,0,46.8-0.1,70.2,0c9.6-0.2,18.1,8.6,17.3,18.2
		c-0.4,8.9-8.5,16.3-17.3,16.2c-24,0-48,0-72.1,0c-9.6-0.1-18.8,5.5-23.7,13.6c5.1,7.5,13.4,13,22.7,13.4c19.7,0.2,39.3,0,59,0.1
		c14.5,0.2,27.7,11.4,30.6,25.6c2.5,10.4-0.8,21.8-8.1,29.5c-6,6.4-14.6,10.4-23.4,10.3c-23.7,0-47.4,0-71.1,0
		c-4.2-0.1-8.5,1.7-11.1,5.1c-4.2,5.1-3.3,13.5,1.7,17.7c2.3,2,5.3,3.2,8.4,3.1c24,0,48,0,72.1,0c8,0.1,15.8-3.6,21-9.6
		c4.7-5.1,6.9-12,7.4-18.9c1,0,3,0.1,4,0.1c-0.2,6.5-2.1,12.9-5.8,18.3c-5.8,8.7-16.1,14.4-26.6,14.2c-24,0-48.1,0-72.1,0
		c-4.2,0.1-8.3-1.6-11.4-4.4c-6-5.4-7.2-15.2-2.8-21.9c3.1-4.8,8.6-7.8,14.2-7.8c24,0,48,0,72,0c8.2,0.1,16.3-3.9,21.5-10.1
		c0.9-1.2,2.5-2.4,2-4c-5-7.9-14.2-13-23.6-13c-19.3,0-38.7,0-58,0c-16.9-0.5-31.5-16-30.9-32.9c1.6,0.2,4.7-0.7,4.2,2.1
		c0.6,13.9,12.8,26.1,26.7,26.6c19.7,0.2,39.3,0,59,0.1c9.9,0.2,19.5,5.4,25.3,13.5c2.2-6,2.9-12.7,0.9-18.9
		c-3.2-11.8-14.8-20.7-27-20.6c-19.4-0.1-38.7,0-58.1,0C80,112,65.8,98,65.2,82C64.2,70.3,70.1,58.4,80,52.2 M72.3,66.6
		c-3.8,7.2-4,16.1-1.3,23.7c4.2-4.7,9-9,15-11.2c9.2-3.6,19.3-1.6,28.9-2.3c16.4,0,32.7,0.1,49,0c3.6,0.2,7.4,0.5,10.8-1.1
		c5.7-2.5,9-9.6,6.9-15.5c-1.6-5.4-6.9-9.5-12.6-9.1c-24,0-48,0-72.1,0C86.7,51.1,76.9,57.5,72.3,66.6z"/>
</g>
</svg>
